X:80
T:Reel Boule de Neige
C:Joseph Allard
M:2/4
L:1/16
Z:abc by Bruce Osborne - bosborne@kos.net
K:G
Bc|d2B2 g2B2|d2c2 cBAB|c2A2 d2A2|c2B2 BAGB|!
d2B2 g2B2|f2e2 edef|e2c2 a2f2|g2b2 g2:|!
K:D
d2|ABAG F2A2|fefg f2d2|efed c2e2|a^gab a4|!
ABAG F2A2|fefg f2ed|c2e2 a2c2|e2d2 d2:|!
